public/images/appily-advance-logo-light.svg

<svg width="355" height="46" viewBox="0 0 355 46" fill="none" xmlns="http://www.w3.org/2000/svg">
<g clip-path="url(#clip0_307_3204)">
<path d="M63.9218 20.1463H65.2687V19.4222C65.2687 16.6537 63.543 15.6741 61.3122 15.6741C58.1133 15.6741 55.2511 17.7611 55.2511 17.7611L53.2729 14.013C53.2729 14.013 56.598 11.3297 61.7752 11.3297C67.5416 11.3297 70.6143 14.3537 70.6143 19.8908V28.5796C70.6143 29.2185 70.951 29.5167 71.5402 29.5167H73.4764V33.563H68.4255C66.4473 33.563 65.6896 32.4982 65.6896 31.263V31.0074C65.6896 30.3259 65.8159 29.9 65.8159 29.9H65.7317C65.7317 29.9 63.9218 34.0741 58.9551 34.0741C55.2932 34.0741 51.8418 31.9019 51.8418 27.4722C51.8418 20.8278 60.4704 20.1463 63.9218 20.1463ZM60.3441 30.0278C63.2484 30.0278 65.3108 26.8759 65.3108 24.15V23.4259H64.4269C62.3224 23.4259 57.2294 23.7667 57.2294 27.0463C57.2294 28.6648 58.3658 30.0278 60.3441 30.0278Z" fill="#1E252A"/>
<path d="M77.3979 38.0352V16.8241C77.3979 16.2278 77.0612 15.8871 76.4719 15.8871H74.0727V11.8408H79.5866C81.5649 11.8408 82.2383 12.7778 82.2383 13.8852V14.013C82.2383 14.5241 82.1962 14.9926 82.1962 14.9926H82.2804C82.2804 14.9926 84.1324 11.3297 89.1833 11.3297C94.9918 11.3297 98.6958 15.9722 98.6958 22.7019C98.6958 29.4315 94.5288 34.0741 88.8887 34.0741C84.6375 34.0741 82.7013 31.0074 82.7013 31.0074H82.6171C82.6171 31.0074 82.7434 31.7741 82.7434 32.8815V38.0352H85.8581V42.0815H74.2832V38.0352H77.3979ZM87.9206 29.5167C90.8669 29.5167 93.3082 27.0889 93.3082 22.7871C93.3082 18.4852 91.1195 15.9722 87.9627 15.9722C85.1847 15.9722 82.575 18.0167 82.575 22.8297C82.575 26.1945 84.427 29.5167 87.9206 29.5167Z" fill="#1E252A"/>
<path d="M103.634 38.0352V16.8241C103.634 16.2278 103.298 15.8871 102.708 15.8871H100.309V11.8408H105.823C107.801 11.8408 108.475 12.7778 108.475 13.8852V14.013C108.475 14.5241 108.433 14.9926 108.433 14.9926H108.517C108.517 14.9926 110.369 11.3297 115.42 11.3297C121.228 11.3297 124.932 15.9722 124.932 22.7019C124.932 29.4315 120.765 34.0741 115.125 34.0741C110.874 34.0741 108.938 31.0074 108.938 31.0074H108.854C108.854 31.0074 108.98 31.7741 108.98 32.8815V38.0352H112.095V42.0815H100.52V38.0352H103.634ZM114.157 29.5167C117.103 29.5167 119.545 27.0889 119.545 22.7871C119.545 18.4852 117.356 15.9722 114.199 15.9722C111.421 15.9722 108.812 18.0167 108.812 22.8297C108.812 26.1945 110.664 29.5167 114.157 29.5167Z" fill="#1E252A"/>
<path d="M127.023 30.3685H130.348V15.2056H126.812V12.0111H134.431V30.3685H137.798V33.563H127.023V30.3685ZM130.264 3.49261H134.557V7.70928H130.264V3.49261Z" fill="#1E252A"/>
<path d="M141.376 6.68706H137.84V3.49261H145.459V27.1741C145.459 29.0056 145.88 30.2408 147.732 30.2408C148.405 30.2408 148.868 30.1982 148.868 30.1982L148.826 33.6056C148.826 33.6056 147.984 33.6908 147.016 33.6908C143.985 33.6908 141.376 32.4556 141.376 27.4297V6.68706Z" fill="#1E252A"/>
<path d="M154.277 39.0574C156.087 39.0574 157.476 37.7796 158.191 36.0759L159.075 33.9463L151.625 15.2056H148.931V12.0111H158.654V15.2056H155.834L160.59 28.0259C160.885 28.963 160.969 29.9 160.969 29.9H161.095C161.095 29.9 161.264 28.963 161.6 28.0259L166.315 15.2056H163.579V12.0111H173.007V15.2056H170.355L161.937 36.9704C160.506 40.6333 157.728 42.5074 154.445 42.5074C151.709 42.5074 149.857 41.1444 149.857 41.1444L151.246 38.0352C151.246 38.0352 152.467 39.0574 154.277 39.0574Z" fill="#1E252A"/>
<path d="M45.0231 21.9778L39.0602 15.9367C37.8817 14.7796 36.1419 16.533 37.2924 17.7327L42.4976 23L22.722 43.0185L2.94635 23L22.722 2.98149L28.1447 8.47593C29.3302 9.63303 31.063 7.87963 29.9125 6.67994L23.7251 0.418832C23.185 -0.141971 22.2379 -0.141971 21.6978 0.418832L0.406872 21.9707C-0.147323 22.5173 -0.147323 23.4756 0.406872 24.0222L7.80081 31.5043V37.1407C7.49215 37.4034 7.28871 37.8009 7.28871 38.2411C7.28871 38.6812 7.4711 39.0432 7.75872 39.3059L5.73837 44.8997V44.9281C5.71031 44.9991 5.70329 45.0701 5.70329 45.1411C5.70329 45.3682 5.79449 45.5741 5.94181 45.7232C6.08912 45.8722 6.29958 45.9716 6.53108 45.9716H10.9085C11.14 45.9716 11.3505 45.8722 11.4978 45.7232C11.6451 45.5741 11.7363 45.3682 11.7363 45.1411C11.7363 45.063 11.7223 44.9849 11.7012 44.9068V44.8713L9.68788 39.3059C9.9755 39.0432 10.1509 38.667 10.1509 38.2411C10.1509 37.7938 9.94744 37.4034 9.63878 37.1407V33.3642L9.66684 33.3926L21.7118 45.5812C22.252 46.142 23.199 46.142 23.7322 45.5812L45.0231 24.0293C45.9 23.1491 45.1984 22.1623 45.0231 21.9778Z" fill="#ED8B00"/>
<path d="M21.81 15.9225C21.6767 15.5747 21.347 15.3475 20.9752 15.3475H14.5003C14.0162 15.3475 13.6023 15.7593 13.6023 16.2562C13.6023 16.4052 13.6374 16.5543 13.7146 16.6892L21.9433 31.8805C22.0205 32.0296 22.1467 32.1503 22.2871 32.2355C22.6729 32.4626 23.185 32.3562 23.4516 31.987L43.8796 4.0108C43.9989 3.85462 44.055 3.65586 44.055 3.47129C44.055 2.98148 43.6481 2.55555 43.157 2.56265H36.4225C36.1209 2.56265 35.8403 2.71882 35.6719 2.97438L23.8935 21.2821L21.803 15.9225H21.81Z" fill="#ED8B00"/>
</g>
<path d="M185 6.5H189L181 39.5H177L185 6.5Z" fill="white" fill-opacity="0.3"/>
<path d="M193 6.5H197L189 39.5H185L193 6.5Z" fill="white" fill-opacity="0.3"/>
<path d="M213.408 31L211.704 26.128H205.32L203.64 31H201.192L207.288 14.056H209.784L215.88 31H213.408ZM208.56 16.384H208.512C208.512 16.384 208.128 17.92 207.84 18.784L205.944 24.16H211.08L209.208 18.784C208.92 17.92 208.56 16.384 208.56 16.384Z" fill="#E468FF"/>
<path d="M223.174 31V14.056H228.79C233.974 14.056 237.382 17.152 237.382 22.504C237.382 27.88 233.974 31 228.79 31H223.174ZM225.55 28.936H228.622C232.438 28.936 234.934 26.68 234.934 22.504C234.934 18.352 232.414 16.12 228.622 16.12H225.55V28.936Z" fill="#E468FF"/>
<path d="M249.75 31L243.486 14.056H246.054L250.254 26.032C250.566 26.944 250.902 28.36 250.902 28.36H250.95C250.95 28.36 251.286 26.944 251.598 26.032L255.846 14.056H258.366L252.126 31H249.75Z" fill="#E468FF"/>
<path d="M275.011 31L273.307 26.128H266.923L265.243 31H262.795L268.891 14.056H271.387L277.483 31H275.011ZM270.163 16.384H270.115C270.115 16.384 269.731 17.92 269.443 18.784L267.547 24.16H272.683L270.811 18.784C270.523 17.92 270.163 16.384 270.163 16.384Z" fill="#E468FF"/>
<path d="M284.777 31V14.056H287.129L294.665 25.072C295.289 25.984 296.081 27.52 296.081 27.52H296.129C296.129 27.52 295.961 26.008 295.961 25.072V14.056H298.337V31H296.009L288.449 20.008C287.825 19.072 287.033 17.536 287.033 17.536H286.985C286.985 17.536 287.153 19.048 287.153 20.008V31H284.777Z" fill="#E468FF"/>
<path d="M306.589 22.432C306.589 17.512 310.285 13.768 315.205 13.768C319.285 13.768 321.374 16 321.374 16L320.198 17.776C320.198 17.776 318.229 15.928 315.301 15.928C311.509 15.928 309.037 18.808 309.037 22.408C309.037 26.032 311.557 29.104 315.325 29.104C318.517 29.104 320.558 26.896 320.558 26.896L321.829 28.6C321.829 28.6 319.502 31.288 315.253 31.288C310.166 31.288 306.589 27.4 306.589 22.432Z" fill="#E468FF"/>
<path d="M329.862 31V14.056H339.702V16.12H332.238V21.424H338.31V23.488H332.238V28.936H340.11V31H329.862Z" fill="#E468FF"/>
<defs>
<clipPath id="clip0_307_3204">
<rect width="173" height="46" fill="white"/>
</clipPath>
</defs>
</svg>

<?xml version="1.0" encoding="utf-8"?>
<!-- Generator: Adobe Illustrator 27.9.0, SVG Export Plug-In . SVG Version: 6.00 Build 0)  -->
<svg version="1.1" id="Layer_1" xmlns="http://www.w3.org/2000/svg" xmlns:xlink="http://www.w3.org/1999/xlink" x="0px" y="0px"
	 viewBox="0 0 355 46" style="enable-background:new 0 0 355 46;" xml:space="preserve">
<style type="text/css">
	.st0{clip-path:url(#SVGID_00000016064303912842702900000015331862032157139123_);}
	.st1{fill:#1E252A;}
	.st2{fill:#ED8B00;}
	.st3{fill:#AFB1B4;fill-opacity:0.3;}
	.st4{fill:#E468FF;}
</style>
<g>
	<defs>
		<rect id="SVGID_1_" width="173" height="46"/>
	</defs>
	<clipPath id="SVGID_00000105406267984964875830000016637219579924173240_">
		<use xlink:href="#SVGID_1_"  style="overflow:visible;"/>
	</clipPath>
	<g style="clip-path:url(#SVGID_00000105406267984964875830000016637219579924173240_);">
		<path class="st1" d="M63.9,20.1h1.3v-0.7c0-2.8-1.7-3.7-4-3.7c-3.2,0-6.1,2.1-6.1,2.1l-2-3.7c0,0,3.3-2.7,8.5-2.7
			c5.8,0,8.8,3,8.8,8.6v8.7c0,0.6,0.3,0.9,0.9,0.9h1.9v4h-5.1c-2,0-2.7-1.1-2.7-2.3V31c0-0.7,0.1-1.1,0.1-1.1h-0.1
			c0,0-1.8,4.2-6.8,4.2c-3.7,0-7.1-2.2-7.1-6.6C51.8,20.8,60.5,20.1,63.9,20.1z M60.3,30c2.9,0,5-3.2,5-5.9v-0.7h-0.9
			c-2.1,0-7.2,0.3-7.2,3.6C57.2,28.7,58.4,30,60.3,30z"/>
		<path class="st1" d="M77.4,38V16.8c0-0.6-0.3-0.9-0.9-0.9h-2.4v-4h5.5c2,0,2.7,0.9,2.7,2V14c0,0.5,0,1,0,1h0.1
			c0,0,1.9-3.7,6.9-3.7c5.8,0,9.5,4.6,9.5,11.4c0,6.7-4.2,11.4-9.8,11.4c-4.3,0-6.2-3.1-6.2-3.1h-0.1c0,0,0.1,0.8,0.1,1.9V38h3.1v4
			H74.3v-4H77.4z M87.9,29.5c2.9,0,5.4-2.4,5.4-6.7c0-4.3-2.2-6.8-5.3-6.8c-2.8,0-5.4,2-5.4,6.9C82.6,26.2,84.4,29.5,87.9,29.5z"/>
		<path class="st1" d="M103.6,38V16.8c0-0.6-0.3-0.9-0.9-0.9h-2.4v-4h5.5c2,0,2.7,0.9,2.7,2V14c0,0.5,0,1,0,1h0.1
			c0,0,1.9-3.7,6.9-3.7c5.8,0,9.5,4.6,9.5,11.4c0,6.7-4.2,11.4-9.8,11.4c-4.3,0-6.2-3.1-6.2-3.1h-0.1c0,0,0.1,0.8,0.1,1.9V38h3.1v4
			h-11.6v-4H103.6z M114.2,29.5c2.9,0,5.4-2.4,5.4-6.7c0-4.3-2.2-6.8-5.3-6.8c-2.8,0-5.4,2-5.4,6.9
			C108.8,26.2,110.7,29.5,114.2,29.5z"/>
		<path class="st1" d="M127,30.4h3.3V15.2h-3.5V12h7.6v18.4h3.4v3.2H127V30.4z M130.3,3.5h4.3v4.2h-4.3V3.5z"/>
		<path class="st1" d="M141.4,6.7h-3.5V3.5h7.6v23.7c0,1.8,0.4,3.1,2.3,3.1c0.7,0,1.1,0,1.1,0l0,3.4c0,0-0.8,0.1-1.8,0.1
			c-3,0-5.6-1.2-5.6-6.3V6.7z"/>
		<path class="st1" d="M154.3,39.1c1.8,0,3.2-1.3,3.9-3l0.9-2.1l-7.4-18.7h-2.7V12h9.7v3.2h-2.8l4.8,12.8c0.3,0.9,0.4,1.9,0.4,1.9
			h0.1c0,0,0.2-0.9,0.5-1.9l4.7-12.8h-2.7V12h9.4v3.2h-2.7L161.9,37c-1.4,3.7-4.2,5.5-7.5,5.5c-2.7,0-4.6-1.4-4.6-1.4l1.4-3.1
			C151.2,38,152.5,39.1,154.3,39.1z"/>
		<path class="st2" d="M45,22l-6-6c-1.2-1.2-2.9,0.6-1.8,1.8l5.2,5.3L22.7,43L2.9,23L22.7,3l5.4,5.5c1.2,1.2,2.9-0.6,1.8-1.8
			l-6.2-6.3c-0.5-0.6-1.5-0.6-2,0L0.4,22c-0.6,0.5-0.6,1.5,0,2.1l7.4,7.5v5.6c-0.3,0.3-0.5,0.7-0.5,1.1c0,0.4,0.2,0.8,0.5,1.1
			l-2,5.6v0c0,0.1,0,0.1,0,0.2c0,0.2,0.1,0.4,0.2,0.6C6.1,45.9,6.3,46,6.5,46h4.4c0.2,0,0.4-0.1,0.6-0.2c0.1-0.1,0.2-0.4,0.2-0.6
			c0-0.1,0-0.2,0-0.2v0l-2-5.6c0.3-0.3,0.5-0.6,0.5-1.1c0-0.4-0.2-0.8-0.5-1.1v-3.8l0,0l12,12.2c0.5,0.6,1.5,0.6,2,0L45,24
			C45.9,23.1,45.2,22.2,45,22z"/>
		<path class="st2" d="M21.8,15.9c-0.1-0.3-0.5-0.6-0.8-0.6h-6.5c-0.5,0-0.9,0.4-0.9,0.9c0,0.1,0,0.3,0.1,0.4l8.2,15.2
			c0.1,0.1,0.2,0.3,0.3,0.4c0.4,0.2,0.9,0.1,1.2-0.2L43.9,4c0.1-0.2,0.2-0.4,0.2-0.5c0-0.5-0.4-0.9-0.9-0.9h-6.7
			c-0.3,0-0.6,0.2-0.8,0.4L23.9,21.3L21.8,15.9L21.8,15.9z"/>
	</g>
</g>
<path class="st3" d="M185,6.5h4l-8,33h-4L185,6.5z"/>
<path class="st3" d="M193,6.5h4l-8,33h-4L193,6.5z"/>
<path class="st4" d="M213.4,31l-1.7-4.9h-6.4l-1.7,4.9h-2.4l6.1-16.9h2.5l6.1,16.9H213.4z M208.6,16.4L208.6,16.4
	c0,0-0.4,1.5-0.7,2.4l-1.9,5.4h5.1l-1.9-5.4C208.9,17.9,208.6,16.4,208.6,16.4z"/>
<path class="st4" d="M223.2,31V14.1h5.6c5.2,0,8.6,3.1,8.6,8.4c0,5.4-3.4,8.5-8.6,8.5H223.2z M225.6,28.9h3.1c3.8,0,6.3-2.3,6.3-6.4
	c0-4.2-2.5-6.4-6.3-6.4h-3.1V28.9z"/>
<path class="st4" d="M249.8,31l-6.3-16.9h2.6l4.2,12c0.3,0.9,0.6,2.3,0.6,2.3h0c0,0,0.3-1.4,0.6-2.3l4.2-12h2.5L252.1,31H249.8z"/>
<path class="st4" d="M275,31l-1.7-4.9h-6.4l-1.7,4.9h-2.4l6.1-16.9h2.5l6.1,16.9H275z M270.2,16.4L270.2,16.4c0,0-0.4,1.5-0.7,2.4
	l-1.9,5.4h5.1l-1.9-5.4C270.5,17.9,270.2,16.4,270.2,16.4z"/>
<path class="st4" d="M284.8,31V14.1h2.4l7.5,11c0.6,0.9,1.4,2.4,1.4,2.4h0c0,0-0.2-1.5-0.2-2.4v-11h2.4V31H296l-7.6-11
	c-0.6-0.9-1.4-2.5-1.4-2.5h0c0,0,0.2,1.5,0.2,2.5v11H284.8z"/>
<path class="st4" d="M306.6,22.4c0-4.9,3.7-8.7,8.6-8.7c4.1,0,6.2,2.2,6.2,2.2l-1.2,1.8c0,0-2-1.8-4.9-1.8c-3.8,0-6.3,2.9-6.3,6.5
	c0,3.6,2.5,6.7,6.3,6.7c3.2,0,5.2-2.2,5.2-2.2l1.3,1.7c0,0-2.3,2.7-6.6,2.7C310.2,31.3,306.6,27.4,306.6,22.4z"/>
<path class="st4" d="M329.9,31V14.1h9.8v2.1h-7.5v5.3h6.1v2.1h-6.1v5.4h7.9V31H329.9z"/>
</svg>
